ddff_WindArrows/WeatherSymbol_WMO_WindArrowNH_21.svg

<?xml version="1.0" encoding="UTF-8" standalone="no"?>
<!-- Created with Inkscape (http://www.inkscape.org/) -->

<svg
   xmlns:dc="http://purl.org/dc/elements/1.1/"
   xmlns:cc="http://creativecommons.org/ns#"
   xmlns:rdf="http://www.w3.org/1999/02/22-rdf-syntax-ns#"
   xmlns:svg="http://www.w3.org/2000/svg"
   xmlns="http://www.w3.org/2000/svg"
   version="1.1"
   width="155"
   height="55"
   viewBox="-48 -33 38.75 13.75"
   id="svg3920">
  <desc
     id="en">Observed wind speed: 102–107 knots</desc>
  <metadata
     id="metadata3939">
    <rdf:RDF>
      <cc:Work
         rdf:about="">
        <dc:format>image/svg+xml</dc:format>
        <dc:type
           rdf:resource="http://purl.org/dc/dcmitype/StillImage" />
        <dc:title></dc:title>
      </cc:Work>
    </rdf:RDF>
  </metadata>
  <defs
     id="defs3937" />
  <g
     transform="matrix(0.83204102,0,0,0.61787784,-9.0851103,1.3668246)"
     id="g3941">
    <g
       transform="translate(0,-36.25)"
       id="g3923"
       style="fill:#000000;stroke:none">
      <path
         d="m -44,1 0,-1 5,-17.25 5,17.25 0,1"
         id="path3925" />
      <path
         d="m -34,1 0,-1 5,-17.25 5,17.25 0,1"
         id="path3927" />
    </g>
    <g
       transform="translate(0,-36.25)"
       id="g3929"
       style="fill:none;stroke:#000000;stroke-width:2">
      <path
         d="M 0,0 H -40"
         id="path3931" />
      <path
         d="m -20,0 -2.5,-8.5"
         id="path3933" />
    </g>
  </g>
</svg>

<?xml version="1.0" encoding="UTF-8" standalone="no"?>
<!DOCTYPE svg PUBLIC "-//W3C//DTD SVG 1.1//EN" "http://www.w3.org/Graphics/SVG/1.1/DTD/svg11.dtd">
<svg xmlns="http://www.w3.org/2000/svg" version="1.1" width="200" height="200" viewBox="-48 -33 50 50">
<desc id="en">Observed wind speed: 102–107 knots</desc>
<g style="fill:black; stroke:none; stroke-width:0;">
	<path d="M -44,1 L -44,0 L -39,-17.25 L -34,0 L -34,1"/>
	<path d="M -34,1 L -34,0 L -29,-17.25 L -24,0 L -24,1"/>
</g>
<g style="fill:none; stroke:black; stroke-width:2;">
	<path d="M 0,0 h -40"/>
	<path d="M -20,0 l -2.5,-8.5"/>
</g>
</svg>
